images/header_logo.svg

<svg width="68" height="60" viewBox="0 0 68 60" fill="none" xmlns="http://www.w3.org/2000/svg">
<path fill-rule="evenodd" clip-rule="evenodd" d="M20.2302 4.56332C20.6806 4.55207 21.5228 4.25158 22.0197 4.13243C22.6454 3.98181 23.4817 3.87315 24.0789 3.79597C31.0533 2.89972 36.9485 4.42169 42.574 8.25769C43.525 8.90589 47.2156 11.8951 47.4539 12.8835L35.9781 17.4097L48.0856 20.7938L48.8897 33.2483L55.7141 22.6822L68 25.7756L60.0492 15.9762L66.7845 5.2887L54.9251 9.83061C52.8456 7.42589 51.2704 5.77804 48.473 4.04176C45.8637 2.42163 43.2102 1.29683 39.7174 0.580438C35.9886 -0.184664 32.253 -0.00106996 28.6396 0.800002C27.0727 1.14771 25.484 1.72622 24.1059 2.34744C23.4277 2.65318 22.6754 3.02337 22.0946 3.36058C21.385 3.77274 20.8035 4.19763 20.2309 4.56332H20.2302Z" fill="url(#paint0_linear_1_528)"/>
<path fill-rule="evenodd" clip-rule="evenodd" d="M15.0079 56.1617C14.5403 56.0343 11.8815 53.7135 11.4724 53.2991C7.88965 49.6639 5.73372 46.1441 4.24174 40.8064C2.11354 33.1936 4.15706 25.0495 7.69631 19.6563C12.8145 11.8562 21.678 6.99879 31.5771 7.4529C32.3789 7.48962 33.6423 7.70244 34.5011 7.83583C38.3484 8.43382 41.1712 9.82764 44.0428 11.3833C43.6381 10.7426 40.7463 8.96737 39.7871 8.43233C31.0623 3.57119 19.6502 4.21939 11.5795 9.96553C8.70271 12.0135 6.34296 14.2714 4.38562 17.3573C0.359275 23.7044 -1.51189 32.1572 1.4511 40.733C2.71378 44.3869 4.62691 47.5837 6.76335 49.918C8.01404 51.284 9.05791 52.3354 10.5102 53.422C11.1337 53.8881 14.2315 56.056 15.0094 56.1632L15.0079 56.1617Z" fill="url(#paint1_linear_1_528)"/>
<path fill-rule="evenodd" clip-rule="evenodd" d="M7.87988 46.9886C8.14965 47.7192 9.53298 49.5372 10.1317 50.2528C12.5709 53.1679 15.8636 55.8618 19.4051 57.4258C28.2604 61.3359 37.3479 60.5926 45.3751 55.4205C51.5859 51.4181 53.8025 46.7203 56.2679 40.2653C56.5369 39.3713 57.3732 35.1239 57.1177 34.5686C57.1162 34.5709 56.3279 37.3143 55.891 38.3619C53.5058 44.0751 49.729 48.5727 44.4309 51.9426C42.4159 53.2241 40.0089 54.3421 37.506 55.0615C31.4294 56.8075 26.1981 56.7191 20.1193 54.8457C18.9113 54.4732 17.6044 53.912 16.5291 53.3784C15.3068 52.7722 14.4226 52.2394 13.3787 51.5597C10.3236 49.5709 8.44865 47.3693 7.88138 46.9886H7.87988Z" fill="url(#paint2_linear_1_528)"/>
<path d="M18.945 27.96V30.4688H14.858V38.4721H12.0636V30.4688H7.97656V27.96H18.945Z" fill="white"/>
<path d="M23.2225 27.96V34.6323L28.7348 27.96H31.4153V38.4721H28.6209V31.8379L23.1078 38.4721H20.4281V27.96H23.2225Z" fill="white"/>
<path d="M36.738 27.96L40.0075 34.974H40.0839L43.6194 27.96H46.9841V38.4721H44.1897V31.8567L41.1293 38.4721H38.8864L35.8822 31.8567V38.4721H33.1643V27.96H36.738Z" fill="white"/>
<path fill-rule="evenodd" clip-rule="evenodd" d="M15.0079 56.1617C7.46026 52.1608 4.01543 44.874 3.08622 41.5491C0.0550327 30.445 2.62161 23.4931 6.16086 18.0999C11.279 10.2998 19.9904 5.77209 29.8895 6.22621C34.3235 6.42929 40.1116 8.42785 44.0435 11.3826C43.6381 10.7419 40.7471 8.96664 39.7871 8.43159C31.0623 3.57046 19.6502 4.21866 11.5795 9.9648C8.70271 12.0128 6.34296 14.2706 4.38562 17.3565C0.359275 23.7037 -1.51189 32.1565 1.4511 40.7322C2.71378 44.3862 4.62691 47.5829 6.76335 49.9172C8.01404 51.2833 9.05791 52.3347 10.5102 53.4213C11.1337 53.8874 14.2315 56.0553 15.0094 56.1624L15.0079 56.1617Z" fill="url(#paint3_linear_1_528)" fill-opacity="0.4"/>
<path fill-rule="evenodd" clip-rule="evenodd" d="M7.87988 46.9886C12.1213 52.393 16.9847 54.8794 20.3973 56.3864C28.4492 59.2572 36.5663 58.7859 44.8551 53.7261C48.2302 51.6654 55.9944 44.4947 57.1169 34.5679C57.1154 34.5701 56.3271 37.3135 55.8902 38.3612C53.505 44.0743 49.7282 48.572 44.4302 51.9419C42.4151 53.2233 40.0082 54.3414 37.5053 55.0608C31.4287 56.8068 26.1974 56.7184 20.1185 54.845C18.9105 54.4725 17.6037 53.9112 16.5283 53.3784C15.3061 52.7722 14.4218 52.2387 13.378 51.5597C10.3228 49.5709 8.4479 47.3685 7.88063 46.9886H7.87988Z" fill="url(#paint4_linear_1_528)" fill-opacity="0.368627"/>
<path fill-rule="evenodd" clip-rule="evenodd" d="M20.2302 4.56332C22.6859 3.22645 24.8478 2.61796 28.0266 2.03496C35.2415 0.711577 40.0194 1.30807 46.2639 3.97282C49.6923 5.43558 52.5308 7.39592 54.9251 9.83061C52.8456 7.42589 51.2697 5.77804 48.473 4.04176C45.8637 2.42163 43.2102 1.29683 39.7174 0.580438C35.9886 -0.184664 32.2523 -0.00106996 28.6396 0.800002C27.0727 1.14771 25.484 1.72622 24.1059 2.34744C23.4277 2.65318 22.6754 3.02337 22.0946 3.36058C21.385 3.77274 20.8035 4.19763 20.2309 4.56332H20.2302Z" fill="url(#paint5_linear_1_528)"/>
<defs>
<linearGradient id="paint0_linear_1_528" x1="23.8938" y1="-9.56822" x2="57.2728" y2="20.9804" gradientUnits="userSpaceOnUse">
<stop stop-color="#3B00EC"/>
<stop offset="0.321569" stop-color="#7820F5"/>
<stop offset="1" stop-color="#B640FF"/>
</linearGradient>
<linearGradient id="paint1_linear_1_528" x1="-14.0046" y1="46.9242" x2="28.6141" y2="22.1757" gradientUnits="userSpaceOnUse">
<stop stop-color="#7B4FFF"/>
<stop offset="0.2" stop-color="#9032FF"/>
<stop offset="1" stop-color="#A514FF"/>
</linearGradient>
<linearGradient id="paint2_linear_1_528" x1="43.1698" y1="68.67" x2="56.3616" y2="35.0445" gradientUnits="userSpaceOnUse">
<stop stop-color="#3D00F2"/>
<stop offset="0.2" stop-color="#8948F8"/>
<stop offset="1" stop-color="#D591FF"/>
</linearGradient>
<linearGradient id="paint3_linear_1_528" x1="36.6518" y1="0.157849" x2="-5.27296" y2="42.3711" gradientUnits="userSpaceOnUse">
<stop stop-color="#C66BFF"/>
<stop offset="0.2" stop-color="#D289FF"/>
<stop offset="1" stop-color="#DEA8FF"/>
</linearGradient>
<linearGradient id="paint4_linear_1_528" x1="30.1188" y1="58.6435" x2="54.2574" y2="31.8994" gradientUnits="userSpaceOnUse">
<stop stop-color="#A778FF"/>
<stop offset="0.380392" stop-color="#D3BBFF"/>
<stop offset="1" stop-color="white"/>
</linearGradient>
<linearGradient id="paint5_linear_1_528" x1="34.8039" y1="-3.41518" x2="47.0178" y2="18.5952" gradientUnits="userSpaceOnUse">
<stop stop-color="#3600D9"/>
<stop offset="0.2" stop-color="#5C00D7"/>
<stop offset="1" stop-color="#8300D4"/>
</linearGradient>
</defs>
</svg>

<svg width="68" height="60" fill="none" xmlns="http://www.w3.org/2000/svg"><path fill-rule="evenodd" clip-rule="evenodd" d="M20.23 4.563c.45-.01 1.293-.311 1.79-.43.625-.151 1.462-.26 2.059-.337 6.974-.896 12.87.626 18.495 4.462.951.648 4.642 3.637 4.88 4.626L35.978 17.41l12.108 3.384.804 12.454 6.824-10.566L68 25.776l-7.95-9.8L66.783 5.29 54.925 9.83c-2.08-2.405-3.655-4.053-6.452-5.79-2.61-1.62-5.263-2.744-8.756-3.46C35.99-.186 32.253-.002 28.64.8c-1.567.348-3.156.926-4.534 1.547-.678.306-1.43.676-2.011 1.014-.71.412-1.291.837-1.864 1.202Z" fill="url(#a)"/><path fill-rule="evenodd" clip-rule="evenodd" d="M15.008 56.162c-.468-.128-3.126-2.448-3.536-2.863-3.582-3.635-5.738-7.155-7.23-12.493-2.128-7.612-.085-15.756 3.454-21.15C12.815 11.856 21.678 7 31.577 7.453c.802.037 2.065.25 2.924.383 3.847.598 6.67 1.992 9.542 3.547-.405-.64-3.297-2.416-4.256-2.95C31.062 3.57 19.65 4.218 11.58 9.965c-2.877 2.048-5.237 4.305-7.194 7.391-4.027 6.347-5.898 14.8-2.935 23.376 1.263 3.654 3.176 6.85 5.312 9.185 1.251 1.366 2.295 2.417 3.747 3.504.624.466 3.722 2.634 4.5 2.741l-.002-.001Z" fill="url(#b)"/><path fill-rule="evenodd" clip-rule="evenodd" d="M7.88 46.989c.27.73 1.653 2.548 2.252 3.264 2.439 2.915 5.732 5.609 9.273 7.173 8.855 3.91 17.943 3.167 25.97-2.006 6.21-4.002 8.428-8.7 10.893-15.155.269-.894 1.105-5.141.85-5.696-.002.002-.79 2.745-1.227 3.793-2.385 5.713-6.162 10.21-11.46 13.58a27.093 27.093 0 0 1-6.925 3.12c-6.077 1.745-11.308 1.657-17.387-.216-1.208-.373-2.515-.934-3.59-1.468-1.222-.606-2.106-1.139-3.15-1.818-3.055-1.99-4.93-4.19-5.498-4.571H7.88Z" fill="url(#c)"/><path d="M18.945 27.96v2.509h-4.087v8.003h-2.794V30.47H7.977V27.96h10.968ZM23.223 27.96v6.672l5.512-6.672h2.68v10.512h-2.794v-6.634l-5.513 6.634h-2.68V27.96h2.794ZM36.738 27.96l3.27 7.014h.076l3.535-7.014h3.365v10.512H44.19v-6.615l-3.06 6.615h-2.244l-3.004-6.615v6.615h-2.718V27.96h3.574Z" fill="#fff"/><path fill-rule="evenodd" clip-rule="evenodd" d="M15.008 56.162C7.46 52.16 4.015 44.874 3.086 41.549.055 30.445 2.622 23.493 6.161 18.1 11.279 10.3 19.99 5.773 29.89 6.227c4.434.203 10.222 2.202 14.154 5.157-.406-.641-3.297-2.416-4.257-2.951C31.062 3.57 19.65 4.219 11.58 9.965c-2.877 2.048-5.237 4.306-7.194 7.392-4.027 6.347-5.898 14.8-2.935 23.375 1.263 3.654 3.176 6.85 5.312 9.185 1.251 1.366 2.295 2.418 3.747 3.504.624.466 3.722 2.634 4.5 2.741h-.002Z" fill="url(#d)" fill-opacity=".4"/><path fill-rule="evenodd" clip-rule="evenodd" d="M7.88 46.989c4.241 5.404 9.105 7.89 12.517 9.397 8.052 2.871 16.17 2.4 24.458-2.66 3.375-2.06 11.14-9.231 12.262-19.158-.002.002-.79 2.745-1.227 3.793-2.385 5.713-6.162 10.211-11.46 13.58a27.098 27.098 0 0 1-6.925 3.12c-6.076 1.746-11.308 1.657-17.387-.216-1.207-.373-2.514-.934-3.59-1.467-1.222-.606-2.106-1.14-3.15-1.818-3.055-1.99-4.93-4.192-5.497-4.571H7.88Z" fill="url(#e)" fill-opacity=".369"/><path fill-rule="evenodd" clip-rule="evenodd" d="M20.23 4.563c2.456-1.337 4.618-1.945 7.797-2.528 7.215-1.323 11.992-.727 18.237 1.938 3.428 1.463 6.267 3.423 8.661 5.858-2.08-2.405-3.655-4.053-6.452-5.79-2.61-1.62-5.263-2.744-8.756-3.46C35.99-.186 32.252-.002 28.64.8c-1.567.348-3.156.926-4.534 1.547-.678.306-1.43.676-2.011 1.014-.71.412-1.291.837-1.864 1.202Z" fill="url(#f)"/><defs><linearGradient id="a" x1="23.894" y1="-9.568" x2="57.273" y2="20.98" gradientUnits="userSpaceOnUse"><stop stop-color="#3B00EC"/><stop offset=".322" stop-color="#7820F5"/><stop offset="1" stop-color="#B640FF"/></linearGradient><linearGradient id="b" x1="-14.005" y1="46.924" x2="28.614" y2="22.176" gradientUnits="userSpaceOnUse"><stop stop-color="#7B4FFF"/><stop offset=".2" stop-color="#9032FF"/><stop offset="1" stop-color="#A514FF"/></linearGradient><linearGradient id="c" x1="43.17" y1="68.67" x2="56.362" y2="35.044" gradientUnits="userSpaceOnUse"><stop stop-color="#3D00F2"/><stop offset=".2" stop-color="#8948F8"/><stop offset="1" stop-color="#D591FF"/></linearGradient><linearGradient id="d" x1="36.652" y1=".158" x2="-5.273" y2="42.371" gradientUnits="userSpaceOnUse"><stop stop-color="#C66BFF"/><stop offset=".2" stop-color="#D289FF"/><stop offset="1" stop-color="#DEA8FF"/></linearGradient><linearGradient id="e" x1="30.119" y1="58.644" x2="54.257" y2="31.899" gradientUnits="userSpaceOnUse"><stop stop-color="#A778FF"/><stop offset=".38" stop-color="#D3BBFF"/><stop offset="1" stop-color="#fff"/></linearGradient><linearGradient id="f" x1="34.804" y1="-3.415" x2="47.018" y2="18.595" gradientUnits="userSpaceOnUse"><stop stop-color="#3600D9"/><stop offset=".2" stop-color="#5C00D7"/><stop offset="1" stop-color="#8300D4"/></linearGradient></defs></svg>
